Yaru++/status/scalable/security-medium.svg

<svg height="256" width="256" xmlns="http://www.w3.org/2000/svg" xmlns:xlink="http://www.w3.org/1999/xlink">
  <linearGradient id="linearGradient4358" gradientUnits="userSpaceOnUse" x1="88" x2="488" y1="88" y2="488">
    <stop offset="0" stop-opacity=".588235"/>
    <stop offset="1" stop-opacity=".205556"/>
  </linearGradient>
  <filter id="filter4380" color-interpolation-filters="sRGB" height="1.088" width="1.106" x="-.05" y="-.04">
    <feGaussianBlur stdDeviation="8.48"/>
  </filter>
  <filter id="filter4346" color-interpolation-filters="sRGB" height="1.022" width="1.026" x="-.01" y="-.01">
    <feGaussianBlur stdDeviation="2.12"/>
  </filter>
  <path d="m141.84323 74c-70.59344 0-78.18921 7.250835-77.84323 77.98706v146.01294 146.01294c-.34598 70.73623 7.24979 77.98706 77.84323 77.98706h292.31354c70.59344 0 79.78033-7.27652 77.84323-77.98706v-146.01294-146.01294c0-70.737067-7.24979-77.98706-77.84323-77.98706z" filter="url(#filter4346)" opacity=".1" transform="matrix(.5 0 0 .5 -16.116488 -20.825537)"/>
  <path d="m141.84323 74c-70.59344 0-78.18921 7.250835-77.84323 77.98706v146.01294 146.01294c-.34598 70.73623 7.24979 77.98706 77.84323 77.98706h292.31354c70.59344 0 79.78033-7.27652 77.84323-77.98706v-146.01294-146.01294c0-70.737067-7.24979-77.98706-77.84323-77.98706z" fill="url(#linearGradient4358)" filter="url(#filter4380)" opacity=".3" transform="matrix(.5 0 0 .5 -16.116488 -20.825235)"/>
  <path d="m53.695112 13.174464c-36.098811 0-39.983002 3.690159-39.80608 39.689839v74.310167 74.31016c-.176922 35.99969 3.707269 39.68984 39.80608 39.68984h148.387318c36.09881 0 40.77464-3.70276 39.80608-39.68984v-74.31016-74.310167c0-36.00011-3.70727-39.689839-39.80608-39.689839z" opacity=".2"/>
  <path d="m200.95649 15.174464c35.29673 0 39.09461 3.625419 38.92162 38.993529v73.006477 73.00647c.17299 35.36812-3.62489 38.99353-38.92162 38.99353h-146.156758c-35.296716 0-38.921616-3.625-38.921616-38.99353v-73.00647-73.006477c0-35.36853 3.6249-38.993529 38.921616-38.993529z" fill="#aea795"/>
  <path d="m54.805392 15.174464c-35.296728 0-39.09487 3.626029-38.92188 38.994139v2c-.17299-35.36811 3.625152-38.99414 38.92188-38.99414h146.156238c35.29673 0 38.92188 3.62561 38.92188 38.99414v-2c0-35.36853-3.62515-38.994139-38.92188-38.994139z" fill="#fff" opacity=".3"/>
  <path d="m54.810792 239.17447c-35.296731 0-39.094875-3.62603-38.921885-38.99414v-2c-.17299 35.36811 3.625154 38.99414 38.921885 38.99414h146.156238c35.29673 0 38.92188-3.62561 38.92188-38.99414v2c0 35.36853-3.62515 38.99414-38.92188 38.99414z" opacity=".2"/>
  <path d="m321.0002-134.73828s-1.6364 2.73828-6 2.73828c0 9.30952 6 12.59375 6 12.59375s6-3.28423 6-12.59375c-4.3636 0-6-2.73828-6-2.73828zm0 1.38672c.2717.31199.25698.41895.78125.79492.91138.65362 2.36191 1.19015 4.15234 1.39062-.17355 3.94342-1.43861 6.64197-2.73047 8.35157-.98149 1.29891-1.73996 1.87837-2.20312 2.19336-.46316-.31499-1.22161-.89445-2.20313-2.19336-1.29183-1.7096-2.55691-4.40815-2.73046-8.35157 1.79043-.20047 3.24096-.737 4.15234-1.39062.52457-.37619.50954-.48285.78125-.79492zm0 1.4082c-.0921.0797-.0727.10852-.19922.19922-.88867.63733-2.15046 1.06647-3.58203 1.3457.30478 3.23088 1.30215 5.5581 2.37695 6.98047.65598.8681 1.01485 1.09712 1.4043 1.4082.38948-.31107.75015-.53992 1.40625-1.4082 1.07458-1.42207 2.0719-3.74876 2.37695-6.97851-1.43259-.27917-2.69483-.70998-3.58398-1.34766-.12652-.0907-.10722-.11952-.19922-.19922z" fill="#fff" transform="matrix(10.76178432441 0 0 10.76178432441 -3326.65410958738 1494.69877650945)"/>
</svg>

<?xml version="1.0" encoding="UTF-8" standalone="no"?>
<svg
   xmlns:dc="http://purl.org/dc/elements/1.1/"
   xmlns:cc="http://creativecommons.org/ns#"
   xmlns:rdf="http://www.w3.org/1999/02/22-rdf-syntax-ns#"
   xmlns:svg="http://www.w3.org/2000/svg"
   xmlns="http://www.w3.org/2000/svg"
   xmlns:xlink="http://www.w3.org/1999/xlink"
   xmlns:sodipodi="http://sodipodi.sourceforge.net/DTD/sodipodi-0.dtd"
   xmlns:inkscape="http://www.inkscape.org/namespaces/inkscape"
   width="256"
   height="256"
   version="1.0"
   id="svg154"
   sodipodi:docname="security-medium.svg"
   inkscape:version="0.92.3 (2405546, 2018-03-11)">
  <metadata
     id="metadata158">
    <rdf:RDF>
      <cc:Work
         rdf:about="">
        <dc:format>image/svg+xml</dc:format>
        <dc:type
           rdf:resource="http://purl.org/dc/dcmitype/StillImage" />
        <dc:title></dc:title>
      </cc:Work>
    </rdf:RDF>
  </metadata>
  <sodipodi:namedview
     pagecolor="#ffffff"
     bordercolor="#666666"
     borderopacity="1"
     objecttolerance="10"
     gridtolerance="10"
     guidetolerance="10"
     inkscape:pageopacity="0"
     inkscape:pageshadow="2"
     inkscape:window-width="1920"
     inkscape:window-height="1009"
     id="namedview156"
     showgrid="false"
     inkscape:zoom="3.2617188"
     inkscape:cx="86.457485"
     inkscape:cy="128"
     inkscape:window-x="0"
     inkscape:window-y="34"
     inkscape:window-maximized="1"
     inkscape:current-layer="g152" />
  <defs
     id="defs46">
    <linearGradient
       id="a">
      <stop
         id="stop2"
         offset="0"
         stop-color="#68676b" />
      <stop
         id="stop4"
         offset=".8"
         stop-color="#424048" />
      <stop
         id="stop6"
         offset="1"
         stop-color="#241f31" />
    </linearGradient>
    <radialGradient
       id="d"
       cx="279.422"
       cy="446.483"
       r="224"
       fx="279.422"
       fy="446.483"
       gradientTransform="matrix(1.34416,6e-4,-6.2e-4,1.38763,-121.22,-718.103)"
       gradientUnits="userSpaceOnUse"
       xlink:href="#a" />
    <linearGradient
       id="e"
       x1="43.844"
       x2="-60"
       y1="234"
       y2="234"
       gradientTransform="matrix(1.0015,0,0,0.99993,72.09,56.015)"
       gradientUnits="userSpaceOnUse"
       xlink:href="#b" />
    <linearGradient
       id="b">
      <stop
         id="stop11"
         offset="0"
         stop-color="#d5d3cf" />
      <stop
         id="stop13"
         offset=".038"
         stop-color="#e3e2df" />
      <stop
         id="stop15"
         offset=".077"
         stop-color="#c0bfbc" />
      <stop
         id="stop17"
         offset=".923"
         stop-color="#c0bfbc" />
      <stop
         id="stop19"
         offset=".962"
         stop-color="#e3e2df" />
      <stop
         id="stop21"
         offset="1"
         stop-color="#d5d3cf" />
    </linearGradient>
    <linearGradient
       id="linearGradient1007"
       x1="160.305"
       x2="161.33"
       y1="240.139"
       y2="135.579"
       gradientTransform="matrix(0.54625232,0,0,0.54625232,-6.0941965,-68.413544)"
       gradientUnits="userSpaceOnUse"
       xlink:href="#linearGradient1018" />
    <linearGradient
       id="linearGradient1018">
      <stop
         id="stop2-3"
         offset="0"
         style="stop-color:#37a6e6" />
      <stop
         id="stop4-6"
         offset="1"
         style="stop-color:#1a7fd4" />
    </linearGradient>
    <clipPath
       id="clipPath1082-3"
       clipPathUnits="userSpaceOnUse">
      <path
         d="M 361.9375,-212 C 507.2348,-212 528,-191.28677 528,-46.125 V 70.125 C 528,215.28618 507.2348,236 361.9375,236 H 214.0625 C 68.7652,236 48,215.28618 48,70.125 V -46.125 C 48,-191.28677 68.7652,-212 214.0625,-212 Z"
         style="fill:#8c59d9"
         id="path19" />
    </clipPath>
    <linearGradient
       id="linearGradient4358"
       x1="88"
       x2="488"
       y1="88"
       y2="488"
       gradientUnits="userSpaceOnUse"
       xlink:href="#linearGradient4360" />
    <linearGradient
       id="linearGradient4360">
      <stop
         id="stop4362"
         offset="0"
         style="stop-color:#000000;stop-opacity:0.58823532" />
      <stop
         id="stop4366"
         offset="1"
         style="stop-color:#000000;stop-opacity:0.20555556" />
    </linearGradient>
    <filter
       style="color-interpolation-filters:sRGB"
       id="filter4380"
       width="1.106"
       height="1.088"
       x="-.05"
       y="-.04">
      <feGaussianBlur
         id="feGaussianBlur4382"
         stdDeviation="8.48" />
    </filter>
    <filter
       style="color-interpolation-filters:sRGB"
       id="filter4346"
       width="1.026"
       height="1.022"
       x="-.01"
       y="-.01">
      <feGaussianBlur
         id="feGaussianBlur4348"
         stdDeviation="2.12" />
    </filter>
    <radialGradient
       id="SVGID_1_"
       cx="173.588"
       cy="130.215"
       r="65.523"
       gradientTransform="translate(-431.12529,73.925223)"
       gradientUnits="userSpaceOnUse">
      <stop
         style="stop-color:#FBC8B4"
         id="stop10"
         offset="0" />
      <stop
         style="stop-color:#ED1C24"
         id="stop12"
         offset="1" />
    </radialGradient>
    <radialGradient
       id="SVGID_1_-3"
       cx="86.63"
       cy="167.069"
       r="54.715"
       gradientUnits="userSpaceOnUse">
      <stop
         style="stop-color:#FFFFFF"
         id="stop14"
         offset="0" />
      <stop
         style="stop-color:#FBC8B4"
         id="stop16"
         offset=".06" />
      <stop
         style="stop-color:#FBC3B0"
         id="stop18"
         offset=".071" />
      <stop
         style="stop-color:#F7978B"
         id="stop20"
         offset=".183" />
      <stop
         style="stop-color:#F4716B"
         id="stop22"
         offset=".299" />
      <stop
         style="stop-color:#F15251"
         id="stop24"
         offset=".42" />
      <stop
         style="stop-color:#EF3A3D"
         id="stop26"
         offset=".545" />
      <stop
         style="stop-color:#EE292F"
         id="stop28"
         offset=".678" />
      <stop
         style="stop-color:#ED1F27"
         id="stop30"
         offset=".822" />
      <stop
         style="stop-color:#ED1C24"
         id="stop32"
         offset="1" />
    </radialGradient>
    <filter
       style="color-interpolation-filters:sRGB"
       id="filter1657"
       width="1.102"
       height="1.091"
       x="-.05"
       y="-.04">
      <feGaussianBlur
         id="feGaussianBlur1659"
         stdDeviation="7.806" />
    </filter>
    <linearGradient
       id="linearGradient4106"
       x1="224"
       x2="224"
       y1="86"
       y2="478"
       gradientTransform="matrix(0.45314729,0,0,0.45314729,-306.92096,16.636739)"
       gradientUnits="userSpaceOnUse"
       xlink:href="#linearGradient3602" />
    <linearGradient
       id="linearGradient3602">
      <stop
         style="stop-color:#f3994a"
         id="stop3597"
         offset="0" />
      <stop
         style="stop-color:#f6b069"
         id="stop3599"
         offset="1" />
    </linearGradient>
    <linearGradient
       gradientUnits="userSpaceOnUse"
       y2="236"
       y1="-212"
       x2="296"
       x1="296"
       id="linearGradient1108">
      <stop
         id="stop65"
         offset="0"
         style="stop-color:#ffffff" />
      <stop
         id="stop67"
         offset=".125"
         style="stop-color:#ffffff;stop-opacity:.09803922" />
      <stop
         id="stop69"
         offset=".925"
         style="stop-color:#000000;stop-opacity:.09803922" />
      <stop
         id="stop71"
         offset="1"
         style="stop-color:#000000;stop-opacity:.49803922" />
    </linearGradient>
    <clipPath
       id="clipPath1082-3-3">
      <path
         id="path74"
         style="fill:#8c59d9"
         d="M 361.9375,-212 C 507.2348,-212 528,-191.28677 528,-46.125 V 70.125 C 528,215.28618 507.2348,236 361.9375,236 H 214.0625 C 68.7652,236 48,215.28618 48,70.125 V -46.125 C 48,-191.28677 68.7652,-212 214.0625,-212 Z" />
    </clipPath>
    <filter
       style="color-interpolation-filters:sRGB"
       height="1.121"
       width="1.119"
       y="-.06"
       x="-.06"
       id="filter929">
      <feGaussianBlur
         id="feGaussianBlur77"
         stdDeviation="3.909" />
    </filter>
    <linearGradient
       gradientUnits="userSpaceOnUse"
       gradientTransform="matrix(0 .26458333 -.26458333 0 74.498196 223.03096)"
       y2="156"
       y1="156"
       x2="272"
       x1="32"
       id="linearGradient878">
      <stop
         id="stop80"
         offset="0"
         style="stop-color:#2f9b3f" />
      <stop
         id="stop82"
         offset="1"
         style="stop-color:#3eb34f" />
    </linearGradient>
    <filter
       style="color-interpolation-filters:sRGB"
       height="1.05"
       width="1.046"
       y="-.03"
       x="-.02"
       id="filter938">
      <feGaussianBlur
         id="feGaussianBlur85"
         stdDeviation="2.32" />
    </filter>
    <filter
       style="color-interpolation-filters:sRGB"
       height="1.025"
       width="1.023"
       y="-.01"
       x="-.01"
       id="filter4569">
      <feGaussianBlur
         id="feGaussianBlur88"
         stdDeviation="1.16" />
    </filter>
    <filter
       style="color-interpolation-filters:sRGB"
       height="1.05"
       width="1.046"
       y="-0.029999999"
       x="-0.02"
       id="filter913">
      <feGaussianBlur
         id="feGaussianBlur17"
         stdDeviation="2.32" />
    </filter>
    <filter
       style="color-interpolation-filters:sRGB"
       height="1.025"
       width="1.023"
       y="-0.0099999998"
       x="-0.0099999998"
       id="filter4569-3">
      <feGaussianBlur
         id="feGaussianBlur14"
         stdDeviation="1.16" />
    </filter>
    <clipPath
       id="clipPath1082-3-2">
      <path
         id="path11"
         style="fill:#8c59d9"
         d="M 361.9375,-212 C 507.2348,-212 528,-191.28677 528,-46.125 V 70.125 C 528,215.28618 507.2348,236 361.9375,236 H 214.0625 C 68.7652,236 48,215.28618 48,70.125 V -46.125 C 48,-191.28677 68.7652,-212 214.0625,-212 Z"
         inkscape:connector-curvature="0" />
    </clipPath>
    <filter
       style="color-interpolation-filters:sRGB"
       height="1.089"
       width="1.104"
       y="-0.039999999"
       x="-0.050000001"
       id="filter1013">
      <feGaussianBlur
         id="feGaussianBlur20"
         stdDeviation=".745" />
    </filter>
    <linearGradient
       spreadMethod="reflect"
       gradientUnits="userSpaceOnUse"
       gradientTransform="matrix(0.17977937,0,0,0.15709877,32.450636,231.55237)"
       y2="51.276001"
       y1="51.276001"
       x2="397.147"
       x1="526.09698"
       id="linearGradient4317">
      <stop
         id="stop23"
         offset="0"
         style="stop-color:#b4b4b4" />
      <stop
         id="stop25"
         offset="1"
         style="stop-color:#ffffff" />
    </linearGradient>
    <linearGradient
       gradientUnits="userSpaceOnUse"
       gradientTransform="matrix(1.0079364,0,0,1.0079364,4.0637822,227.76452)"
       y2="47.25"
       y1="15.25"
       x2="116"
       x1="116"
       id="linearGradient4292">
      <stop
         id="stop28-3"
         offset="0"
         style="stop-color:#bc1938;stop-opacity:1" />
      <stop
         id="stop30-6"
         offset="1"
         style="stop-color:#da1636;stop-opacity:1" />
    </linearGradient>
  </defs>
  <g
     id="g152">
    <path
       d="M 141.84323,74 C 71.24979,74 63.65402,81.250835 64,151.98706 V 298 444.01294 C 63.65402,514.74917 71.24979,522 141.84323,522 H 434.15677 C 504.75021,522 513.9371,514.72348 512,444.01294 V 298 151.98706 C 512,81.249993 504.75021,74 434.15677,74 Z"
       transform="matrix(0.5,0,0,0.5,-16.116488,-20.825537)"
       style="opacity:0.1;filter:url(#filter4346)"
       id="path48" />
    <path
       style="opacity:0.3;fill:url(#linearGradient4358);filter:url(#filter4380)"
       d="M 141.84323,74 C 71.24979,74 63.65402,81.250835 64,151.98706 V 298 444.01294 C 63.65402,514.74917 71.24979,522 141.84323,522 H 434.15677 C 504.75021,522 513.9371,514.72348 512,444.01294 V 298 151.98706 C 512,81.249993 504.75021,74 434.15677,74 Z"
       transform="matrix(0.5,0,0,0.5,-16.116488,-20.825235)"
       id="path50" />
    <path
       d="m 53.695112,13.174464 c -36.098811,0 -39.983002,3.690159 -39.80608,39.689839 v 74.310167 74.31016 c -0.176922,35.99969 3.707269,39.68984 39.80608,39.68984 H 202.08243 c 36.09881,0 40.77464,-3.70276 39.80608,-39.68984 V 127.17447 52.864303 c 0,-36.00011 -3.70727,-39.689839 -39.80608,-39.689839 z"
       style="opacity:0.2"
       id="path52" />
    <path
       d="m 200.95649,15.174464 c 35.29673,0 39.09461,3.625419 38.92162,38.993529 v 73.006477 73.00647 c 0.17299,35.36812 -3.62489,38.99353 -38.92162,38.99353 H 54.799732 c -35.296716,0 -38.921616,-3.625 -38.921616,-38.99353 V 127.17447 54.167993 c 0,-35.36853 3.6249,-38.993529 38.921616,-38.993529 z"
       style="fill:#aea795;fill-opacity:1"
       id="path54" />
    <path
       d="m 54.805392,15.174464 c -35.296728,0 -39.09487,3.626029 -38.92188,38.994139 v 2 c -0.17299,-35.36811 3.625152,-38.99414 38.92188,-38.99414 H 200.96163 c 35.29673,0 38.92188,3.62561 38.92188,38.99414 v -2 c 0,-35.36853 -3.62515,-38.994139 -38.92188,-38.994139 z"
       style="opacity:0.3;fill:#ffffff"
       id="path56" />
    <path
       d="m 54.810792,239.17447 c -35.296731,0 -39.094875,-3.62603 -38.921885,-38.99414 v -2 c -0.17299,35.36811 3.625154,38.99414 38.921885,38.99414 H 200.96703 c 35.29673,0 38.92188,-3.62561 38.92188,-38.99414 v 2 c 0,35.36853 -3.62515,38.99414 -38.92188,38.99414 z"
       style="opacity:0.2"
       id="path58" />
    <g
       transform="translate(2.929599,6.1642912)"
       id="g150">
      <g
         transform="matrix(0.49090931,0,0,0.49090931,68.746142,25.287853)"
         id="g148">
        <radialGradient
           id="radialGradient896"
           cx="86.629997"
           cy="167.069"
           r="54.715"
           gradientUnits="userSpaceOnUse">
          <stop
             id="stop876"
             offset="0"
             style="stop-color:#FFFFFF" />
          <stop
             id="stop878"
             offset=".06"
             style="stop-color:#FBC8B4" />
          <stop
             id="stop880"
             offset=".071"
             style="stop-color:#FBC3B0" />
          <stop
             id="stop882"
             offset=".183"
             style="stop-color:#F7978B" />
          <stop
             id="stop884"
             offset=".299"
             style="stop-color:#F4716B" />
          <stop
             id="stop886"
             offset=".42"
             style="stop-color:#F15251" />
          <stop
             id="stop888"
             offset=".545"
             style="stop-color:#EF3A3D" />
          <stop
             id="stop890"
             offset=".678"
             style="stop-color:#EE292F" />
          <stop
             id="stop892"
             offset=".822"
             style="stop-color:#ED1F27" />
          <stop
             id="stop894"
             offset="1"
             style="stop-color:#ED1C24" />
        </radialGradient>
        <g
           transform="matrix(0.75000002,0,0,0.75000002,24.618764,-6.2921033)"
           id="g130">
          <g
             id="g107"
             transform="matrix(10.265884,0,0,10.265884,-1187.9207,-2303.1295)">
            <g
               transform="matrix(2.8472486,0,0,2.8472486,-786.57928,612.29673)"
               style="display:inline;fill:#ffffff;fill-opacity:1"
               label="status"
               id="layer9">
              <path
                 style="color:#000000;display:inline;overflow:visible;visibility:visible;opacity:1;fill:#ffffff;fill-opacity:1;fill-rule:nonzero;stroke:none;stroke-width:8;marker:none;enable-background:accumulate"
                 id="path5451"
                 d="m 321.0002,-134.73828 c 0,0 -1.6364,2.73828 -6,2.73828 0,9.30952 6,12.59375 6,12.59375 0,0 6,-3.28423 6,-12.59375 -4.3636,0 -6,-2.73828 -6,-2.73828 z m 0,1.38672 c 0.2717,0.31199 0.25698,0.41895 0.78125,0.79492 0.91138,0.65362 2.36191,1.19015 4.15234,1.39062 -0.17355,3.94342 -1.43861,6.64197 -2.73047,8.35157 -0.98149,1.29891 -1.73996,1.87837 -2.20312,2.19336 -0.46316,-0.31499 -1.22161,-0.89445 -2.20313,-2.19336 -1.29183,-1.7096 -2.55691,-4.40815 -2.73046,-8.35157 1.79043,-0.20047 3.24096,-0.737 4.15234,-1.39062 0.52457,-0.37619 0.50954,-0.48285 0.78125,-0.79492 z m 0,1.4082 c -0.0921,0.0797 -0.0727,0.10852 -0.19922,0.19922 -0.88867,0.63733 -2.15046,1.06647 -3.58203,1.3457 0.30478,3.23088 1.30215,5.5581 2.37695,6.98047 0.65598,0.8681 1.01485,1.09712 1.4043,1.4082 0.38948,-0.31107 0.75015,-0.53992 1.40625,-1.4082 1.07458,-1.42207 2.0719,-3.74876 2.37695,-6.97851 -1.43259,-0.27917 -2.69483,-0.70998 -3.58398,-1.34766 -0.12652,-0.0907 -0.10722,-0.11952 -0.19922,-0.19922 z"
                 inkscape:connector-curvature="0" />
            </g>
          </g>
        </g>
      </g>
    </g>
  </g>
</svg>
